icon/fa/chart-area.svg

<svg xmlns="http://www.w3.org/2000/svg" viewBox="0 0 512 512"><!--! Font Awesome Free 6.1.2 by @fontawesome - https://fontawesome.com License - https://fontawesome.com/license/free (Icons: CC BY 4.0, Fonts: SIL OFL 1.1, Code: MIT License) Copyright 2022 Fonticons, Inc.--><path d="M64 400c0 8.8 7.16 16 16 16h400c17.7 0 32 14.3 32 32s-14.3 32-32 32H80c-44.18 0-80-35.8-80-80V64c0-17.67 14.33-32 32-32s32 14.33 32 32v336zm64-80v-84c0-7.7 2.8-15.2 7.9-21.9l79.4-89.9c13-14.8 36.1-14.5 47.8.6l40.1 47c9 10.9 25.4 11.6 35.4 1.6l21-21c13.1-13.1 34.8-12.3 46.9 1.8l65.8 76.8c5 5.8 7.7 13.2 7.7 20.8V320c0 17.7-14.3 32-32 32H159.1c-16.8 0-32-14.3-32-32h.9z"/></svg>

<svg xmlns="http://www.w3.org/2000/svg" viewBox="0 0 512 512" height="1em" width="1em">
<!--! Font Awesome Free 6.1.2 by @fontawesome - https://fontawesome.com License - https://fontawesome.com/license/free (Icons: CC BY 4.0, Fonts: SIL OFL 1.1, Code: MIT License) Copyright 2022 Fonticons, Inc.-->
  <path d="M64 400C64 408.8 71.16 416 80 416H480C497.7 416 512 430.3 512 448C512 465.7 497.7 480 480 480H80C35.82 480 0 444.2 0 400V64C0 46.33 14.33 32 32 32C49.67 32 64 46.33 64 64V400zM128 320V236C128 228.3 130.8 220.8 135.9 214.1L215.3 124.2C228.3 109.4 251.4 109.7 263.1 124.8L303.2 171.8C312.2 182.7 328.6 183.4 338.6 173.4L359.6 152.4C372.7 139.3 394.4 140.1 406.5 154.2L472.3 231C477.3 236.8 480 244.2 480 251.8V320C480 337.7 465.7 352 448 352H159.1C142.3 352 127.1 337.7 127.1 320L128 320z"/>
</svg>
